!!!COM: Johann Philipp Kirnberger
!!!OTL: Fugue in E flat Major
!!!system-decoration: [([(s1,s2)]s3,s4)]
**kern	**kern	**kern	**kern	**kern	**kern	**kern	**kern	**kern	**kern	**kern	**kern	**kern	**kern	**kern	**kern
*part4	*part4	*part4	*part4	*part3	*part3	*part3	*part3	*part2	*part2	*part2	*part2	*part1	*part1	*part1	*part1
*staff16	*staff15	*staff14	*staff13	*staff12	*staff11	*staff10	*staff9	*staff8	*staff7	*staff6	*staff5	*staff4	*staff3	*staff2	*staff1
*I'B. Tbn.	*	*	*	*I'Tbn.	*	*	*	*I'C Tpt. 2	*	*	*	*I'C Tpt. 1	*	*	*
*I"Bass Trombone	*	*	*	*I"Trombone	*	*	*	*I"Trumpet in C 2	*	*	*	*I"Trumpet in C 1	*	*	*
*clefF4	*clefF4	*clefG2	*clefG2
*k[b-e-a-]	*k[b-e-a-]	*k[b-e-a-]	*k[b-e-a-]
*M2/2	*M2/2	*M2/2	*M2/2
!	!	!	!LO:TX:a:iB:t=Maestoso
2E-y	2r	2r	2r
=1	=1	=1	=1
2BB-y	1r	1r	1r
2A-y	.	.	.
=2	=2	=2	=2
2.G	1r	1r	1r
4G-	.	.	.
=3	=3	=3	=3
4F	1r	1r	1r
4E-y	.	.	.
4D	.	.	.
4E-y	.	.	.
=4	=4	=4	=4
1c	1r	1r	1r
=5	=5	=5	=5
2.B-y	1r	1r	1r
4e-y	.	.	.
!!LO:LB
=6	=6	=6	=6
4d	1r	1r	1r
4G	.	.	.
[2c	.	.	.
=7	=7	=7	=7
4c]	1r	1r	1r
4F	.	.	.
4B-y	.	.	.
4E-y	.	.	.
=8	=8	=8	=8
2A-y	1r	1r	1r
2G	.	.	.
=9	=9	=9	=9
1F	1r	1r	1r
=10	=10	=10	=10
2.E-y	2r	1r	1r
.	2B-y	.	.
[4D	.	.	.
=11	=11	=11	=11
4D]	2E-y	1r	1r
2C	.	.	.
.	2e-y	.	.
8BB-yL	.	.	.
8AAnJ	.	.	.
!!LO:LB
=12	=12	=12	=12
4BB-y	2.d	1r	1r
4D	.	.	.
4F	.	.	.
4G	4d-	.	.
=13	=13	=13	=13
4A-y	4c	1r	1r
4G-	4B-y	.	.
4F	4An	.	.
4D	4B-y	.	.
*	*clefC3	*	*
=14	=14	=14	=14
4E-y	1g	1r	1r
4B-y	.	.	.
4e-y	.	.	.
[4e-y	.	.	.
=15	=15	=15	=15
8e-yL]	2.f	1r	1r
8d	.	.	.
8d	.	.	.
8cJ	.	.	.
4d	.	.	.
4G	4b-y	.	.
=16	=16	=16	=16
4F	4an	1r	1r
2B-y	4d	.	.
.	[2g	.	.
8cL	.	.	.
8B-yJ	.	.	.
=17	=17	=17	=17
2.An	4g]	1r	1r
.	4c	.	.
.	4f	.	.
8GL	4B-y	.	.
*	*clefF4	*	*
8FJ	.	.	.
=18	=18	=18	=18
4G	2e-y	1r	1r
4An	.	.	.
8B-yL	2d	.	.
8FJ	.	.	.
[4B-y	.	.	.
=19	=19	=19	=19
4B-y]	1c	1r	1r
8A-yL	.	.	.
8GJ	.	.	.
4A-y	.	.	.
[4A-y	.	.	.
=20	=20	=20	=20
8A-yL]	2B-y	2r	1r
8G	.	.	.
8G	.	.	.
8FJ	.	.	.
4G	4r	2e-y	.
4E-y	4G	.	.
=21	=21	=21	=21
4D	4F	2B-y	1r
2BB-y	8DL	.	.
.	8E-yJ	.	.
.	2F	2a-y	.
8CL	.	.	.
8DJ	.	.	.
!!LO:LB
=22	=22	=22	=22
2.E-y	4E-y	2.g	1r
.	4G	.	.
.	[2B-y	.	.
4E-y	.	4g-	.
=23	=23	=23	=23
4D-	4B-y]	4f	2r
4C-	4An	4e-y	.
4BB-y	4B-y	4d	4r
4GG	4r	[4b-y	4e-y
=24	=24	=24	=24
4AA-y	4r	8b-yL]	1cc
.	.	8a-y	.
4r	4c	8a-y	.
.	.	8gJ	.
2r	4F	8a-yL	.
.	.	8g	.
.	[4A-y	8f	.
.	.	8e-yJ	.
=25	=25	=25	=25
2r	8A-yL]	2.d	2.b-y
.	8G	.	.
.	8G	.	.
.	8FJ	.	.
4r	4G	.	.
[4C	4r	4g	4ee-y
=26	=26	=26	=26
4C]	1r	2f	4dd
2BB-y	.	.	4g
.	.	4e-y	[2cc
[4AA-y	.	8fL	.
.	.	8e-yJ	.
!!LO:LB
=27	=27	=27	=27
4AA-y]	1r	2d	4cc]
8BB-yL	.	.	4f
8AA-yJ	.	.	.
4GG	.	4d-	4b-y
4GG-	.	4c	4e-y
=28	=28	=28	=28
2FF	4r	8cL	2a-y
.	.	8dJ	.
.	4F	4d	.
2r	8GL	2g	2b-y
.	8A-yJ	.	.
.	4A-y	.	.
=29	=29	=29	=29
1r	4B-y	2e-y	1f
.	2c	.	.
.	.	2d	.
.	8B-yL	.	.
.	8A-yJ	.	.
=30	=30	=30	=30
1r	4G	2e-y	2e-y
.	4F	.	.
.	4G	2r	2b-y
.	4d-	.	.
=31	=31	=31	=31
1r	4c	4r	2e-y
.	2B-y	4g	.
.	.	[2cc	2ee-y
.	4An	.	.
=32	=32	=32	=32
1r	2.B-y	4cc]	2.dd
.	.	4f	.
.	.	4b-y	.
.	4r	4r	4dd-
=33	=33	=33	=33
2r	1r	4r	4cc
.	.	4g-	4b-y
4r	.	4f	4an
4D	.	[4ff	4b-y
=34	=34	=34	=34
4.E-y	1r	4ff]	1gg
.	.	4b-y	.
8F	.	.	.
8GL	.	[2ee-y	.
8AnJ	.	.	.
4A	.	.	.
=35	=35	=35	=35
8B-yL	1r	4ee-y]	2.ff
8BB-yJ	.	.	.
2B-y	.	8ddL	.
.	.	8ccJ	.
.	.	4dd	.
4G	.	4een	4bb-y
=36	=36	=36	=36
4F	1r	4ff	4aan
8GL	.	2b-y	4dd
8FJ	.	.	.
8EnL	.	.	[2gg
8C	.	.	.
8D	.	8ccL	.
8EJ	.	8b-yJ	.
!!LO:LB
=37	=37	=37	=37
2F	4r	2an	4gg]
.	4e-y	.	4cc
2r	4d	4a-	4ff
.	4d-	4g	4b-y
=38	=38	=38	=38
2r	4d-	8gL	2ee-y
.	.	8anJ	.
.	4c	4a	.
8r	2B-y	[2b-y	2dd
8DL	.	.	.
8G	.	.	.
8FJ	.	.	.
=39	=39	=39	=39
4En	1r	8b-yL]	1cc
.	.	8g	.
[4F	.	8a-y	.
.	.	8enJ	.
8FL]	.	4.f	.
8G	.	.	.
8A-y	.	.	.
8FJ	.	[8a-y	.
=40	=40	=40	=40
4D	1r	8a-yL]	1b-y
.	.	8f	.
[4E-y	.	8g	.
.	.	8dJ	.
8E-yL]	.	4.e-y	.
8F	.	.	.
8G	.	.	.
8E-yJ	.	[8g	.
!!LO:LB
=41	=41	=41	=41
4.C	1r	8gL]	1a-y
.	.	8g	.
.	.	8f	.
8C	.	8e-yJ	.
8DL	.	8fL	.
8BB-y	.	8d	.
8C	.	8e-y	.
8DJ	.	8fJ	.
=42	=42	=42	=42
4E-y	2r	2e-y	8gL
.	.	.	8anJ
4F	.	.	4a
4G	4r	8dL	2b-y
.	.	8enJ	.
4r	4C	4e	.
=43	=43	=43	=43
1r	[2.F	8fL	4.an
.	.	8cJ	.
.	.	4e-y	.
.	.	.	[8cc
.	.	4d	8ccL]
.	.	.	8fJ
.	8FL]	[4d-	[4b-y
.	8EnJ	.	.
=44	=44	=44	=44
1r	4.F	8d-yL]	8b-yL]
.	.	8cJ	8anJ
.	.	[4e-y	[4cc
.	8An	.	.
.	4.B-y	8e-yL]	8ccL]
.	.	8dnJ	8b-yJ
.	.	[4g	[4ee-y
.	8A	.	.
=45	=45	=45	=45
2r	4.B-y	8gL]	8ee-yL]
.	.	8fJ	8ddJ
.	.	[4a-y	[4ff
.	8d	.	.
2E-y	2e-y	8a-yL]	8ffL]
.	.	8gJ	8ee-yJ
.	.	[4ee-y	[4gg
=46	=46	=46	=46
2BB-y	1r	8ee-yL]	8ggL]
.	.	8dd	8ff
.	.	8dd	8ff
.	.	8ccJ	8ee-yJ
2A-y	.	8ddL	[2ff
.	.	8cc	.
.	.	8cc	.
.	.	8b-yJ	.
=47	=47	=47	=47
2.G	1r	[2b-y	8ffL]
.	.	.	8ee-y
.	.	.	8ee-y
.	.	.	8ddJ
.	.	8b-yL]	[2ee-y
.	.	8b-y	.
4G-	.	8b-y	.
.	.	8anJ	.
=48	=48	=48	=48
4F	1r	2a-y	8ee-yL]
.	.	.	8dd
4E-y	.	.	8dd
.	.	.	8ccJ
4D	.	2b-y	8b-yL
.	.	.	8aa-y
4F	.	.	8aa-y
.	.	.	[8ggJ
!!LO:LB
=49	=49	=49	=49
1c	2r	2a-y	8ggL]
.	.	.	8gg
.	.	.	8gg
.	.	.	[8ffJ
.	2c	2an	8ffL]
.	.	.	8ee-y
.	.	.	8ee-y
.	.	.	8ddJ
=50	=50	=50	=50
1r	2.B-y	8b-yL	8ddL
.	.	8cc	8ee-y
.	.	8cc	8ee-y
.	.	8ddJ	8ffJ
.	.	4.dd	4ff
.	4e-y	.	4gg
.	.	[8cc	.
=51	=51	=51	=51
1r	4d	8ccL]	4.ff
.	.	8a-yJ	.
.	4G	[4b-y	.
.	.	.	8gg
.	[2c	8b-yL]	4.ee-y
.	.	8gJ	.
.	.	4a-y	.
.	.	.	8ff
=52	=52	=52	=52
1r	4c]	8fL	2dd
.	.	8gJ	.
.	4F	4a-y	.
.	4B-y	[2g	2dd-
.	4E-y	.	.
!!LO:LB
=53	=53	=53	=53
1r	2A-y	8gL]	4.cc
.	.	8enJ	.
.	.	[4f	.
.	.	.	8a-y
.	2G	8fL]	4.b-y
.	.	8dJ	.
.	.	[4e-	.
.	.	.	8cc
=54	=54	=54	=54
1r	1F	8e-yL]	[2a-y
.	.	8c	.
.	.	8d	.
.	.	8e-yJ	.
.	.	2d	8a-yL]
.	.	.	8cc
.	.	.	8b-y
.	.	.	8a-yJ
=55	=55	=55	=55
2E-y	2r	4e-y	8r
.	.	.	8gL
.	.	4r	8g
.	.	.	8e-yJ
[2D	2B-y	2r	8fL
.	.	.	8g
.	.	.	8a-y
.	.	.	8gJ
=56	=56	=56	=56
4.D]	2E-y	1r	8gL
.	.	.	8ccJ
.	.	.	[4a-y
8C	.	.	.
8CL	2e-y	.	8a-yL]
8C	.	.	8b-yJ
8BB-y	.	.	[4cc
8AA-yJ	.	.	.
=57	=57	=57	=57
[2BB-y	2.d	8r	4cc]
.	.	8fL	.
.	.	8g	4r
.	.	8a-yJ	.
8BB-yL]	.	[2b-y	2r
8AA-y	.	.	.
8AA-y	4d-	.	.
8GGJ	.	.	.
=58	=58	=58	=58
4AAn	4c	8b-yL]	2r
.	.	8a-y	.
[4E-y	4B-y	8a-y	.
.	.	8gJ	.
8E-yL]	4An	2f	4r
8D	.	.	.
8D	4B-y	.	[4ff
8CJ	.	.	.
=59	=59	=59	=59
2BBn	1g	2r	8ffL]
.	.	.	8ee-y
.	.	.	8ee-y
.	.	.	8ddJ
8CL	.	2g	[2ee-y
8BB-	.	.	.
8BB-y	.	.	.
8AAnJ	.	.	.
=60	=60	=60	=60
4AA-y	1r	2.f	8ee-yL]
.	.	.	8dd
[4BB-y	.	.	8dd
.	.	.	8ccJ
8BB-yL]	.	.	2dd
8C	.	.	.
8D	.	4b-y	.
8E-yJ	.	.	.
!!LO:LB
=61	=61	=61	=61
8FL	1r	4an	4cc
8D	.	.	.
8G	.	4d	2b-y
8FJ	.	.	.
8EnL	.	[2g	.
8C	.	.	.
8D	.	.	8ccL
8E-J	.	.	8b-yJ
=62	=62	=62	=62
8FL	1r	4g]]	2an
8G	.	.	.
8F	.	4c	.
8E-yJ	.	.	.
4D	.	4f	4a-
4D-	.	4B-y	[4g
=63	=63	=63	=63
4C	1r	2e-y	8gL
.	.	.	8anJ
4F	.	.	4a
8GL	.	2d	[2b-y
8FJ	.	.	.
4F	.	.	.
=64	=64	=64	=64
4En	1r	1c	8b-yL]
.	.	.	8g
[4F	.	.	8a-y
.	.	.	8enJ
8FL]	.	.	4.f
8GJ	.	.	.
[4A-y	.	.	.
.	.	.	8e-
=65	=65	=65	=65
8A-yL]	4.B-y	4r	4d
8F	.	.	.
8G	.	[4e-y	4e-y
8E-yJ	8G	.	.
[2BB-y	4.F	8e-yL]	2r
.	.	8dJ	.
.	.	[4f	.
.	8A-y	.	.
!!LO:LB
=66	=66	=66	=66
1BB-y_	4.G	8fL]	1r
.	.	8e-yJ	.
.	.	[4g	.
.	8E-y	.	.
.	4.A-y	8gL]	.
.	.	8e-yJ	.
.	.	[4b-y	.
.	8G	.	.
=67	=67	=67	=67
1BB-y_	4c	8b-y]	1r
.	.	4a-y	.
.	4B-y	.	.
.	.	4g	.
.	4A-y	.	.
.	.	4f	.
.	4G	.	.
.	.	[8e-y	.
=68	=68	=68	=68
2BB-y]	2.F	8e-yL]	1r
.	.	8e-y	.
.	.	8d	.
.	.	8cJ	.
4.BB-y	.	8dL	.
.	.	8B-yJ	.
.	[4G-	[4e-y	.
8AAn	.	.	.
=69	=69	=69	=69
1BB-y	4G-y]	4e-y]	1r
.	8FL	8dL	.
.	8E-yJ	8cJ	.
.	4F	4d	.
.	4A-y	4B-y	.
=70	=70	=70	=70
2BB-y	4A-y	1B-y;	1e-y;
.	8GL	.	.
.	8FJ	.	.
2E-y;	2G;	.	.
==	==	==	==
*-	*-	*-	*-
